X: 1
T: Janet's Fancy
C: Jane Rothfield
R: reel
S: Fiddle Hell Online 2020-11-05
Z: 2020 John Chambers <jc:trillian.mit.edu>
M: 4/4
L: 1/8
K: Em	% and D
|:\
"Em"B,2E2 EFGE | "D"(3FED A2 B2A2 | "C"B,2E2 EFGE | "Bm"(3FED EF D4 |\
"Am"B,2E2 EFGE | "Bm"(3FED A2 B2A2 | "C"B,2E2 EFGE | "Bm"(3FED EF D4 :|
|:\
"D"A3B AFED | "G"G2B2 AB3 | "D"FGA^c dcd2 | "A"ABAG FDEF |\
"D"A3B AFED | "G"G2B2 AB3 | "D"FGA^c dBAG | "A"FGEF "D"D2FG :|
